svgs/sharp-regular/browsers.svg

<svg xmlns="http://www.w3.org/2000/svg" viewBox="0 0 576 512"><!--! Font Awesome Pro 6.6.0 by @fontawesome - https://fontawesome.com License - https://fontawesome.com/license (Commercial License) Copyright 2024 Fonticons, Inc. --><path d="M144 368l0-240 384 0 0 240-384 0zM144 0L96 0l0 48 0 320 0 48 48 0 384 0 48 0 0-48 0-320 0-48L528 0 144 0zM48 120l0-24L0 96l0 24L0 488l0 24 24 0 432 0 24 0 0-48-24 0L48 464l0-344z"/></svg>

<svg xmlns="http://www.w3.org/2000/svg" viewBox="0 0 576 512"><!--! Font Awesome Pro 6.4.2 by @fontawesome - https://fontawesome.com License - https://fontawesome.com/license (Commercial License) Copyright 2023 Fonticons, Inc. --><path d="M144 368V128H528V368H144zM144 0H96V48 368v48h48H528h48V368 48 0H528 144zM48 120V96H0v24V488v24H24 456h24V464H456 48V120z"/></svg>
